X:638
T: LIEBES HERZCHEN ACH SCHOENSTES SCHAETZCHEN
N: E0588
O: Europa, Mitteleuropa, Deutschland, Unter - Taunus, Hennethal
R: Liebes - Lied
M: 3/4
L: 1/8
K: Bb
DE | FBBBcB | AGG2
cB | AABBcc | cdd2
DE | FBBBcB | AGG2
cB | AABBcc | cdd2
Bc | d2d2df | e2d2
cB | A3GFE | E2D2
DF | B2ddcd | f2e2
ed | cccccc | cfd2

